X:1
T:Title
%%score { ( 1 2 ) | ( 3 4 ) }
L:1/8
Q:1/4=90
M:4/4
K:D
V:1 treble nm="Piano" snm="Pno."
V:2 treble 
V:3 bass 
V:4 bass 
V:1
 a/f/g/a/ | ed/d/- d4 a/f/g/a/ | ed/d/- d/ef/- f2 d'/c'/d'/e'/ | %3
 [gb] z b/^a/b/d'/ [eg]>g =a/g/f/e/ | e<f- f2 z [Ff][Gg][Aa] | %5
 [Acea][Bb]/[cc']/- [cc'][dd'] !arpeggio![ee']2 [cc'][Bb] | [Aea]2- [Aea]/f/a/f/ d2 b/a/f/e/- | %7
 e2 b/a/f/e/ e>b a/f/e/d/- | d4 z2 d/c/d/e/ | [GB]3 G A2 B/^A/B/d/ | [DG]3 ^A, B,2 G/E/F/G/ | %11
 A3 [B,EB] [Cc][EB][CA][CE] | [CE][DF]- [DF]4 f/e/d/c/ | d3 B/d/ e2- e/c/c/d/ | d2 f4 ed/B/ | %15
 [Bdfb]3 [Bdfb] [Bdfb][Bdfa][Bdf][GBde]- | [GBde]6 a/f/g/a/ | ed/d/- d4 a/f/g/a/ | %18
 ed/d/- d/ef/- f2 d'/c'/d'/e'/ | [gb] z b/^a/b/d'/ [eg]>g =a/g/f/e/ | e<f- f2 z [Ff][Gg][Aa] | %21
 [Acea][Bb]/[cc']/- [cc'][dd'] !arpeggio![ee']2 [cc'][Bb] | [Aea]2- [Aea]/f/a/f/ d2 b/a/f/e/- | %23
 e2 b/a/f/e/ e>b a/f/e/d/- | d4 z2 A/d/e/f/ | a/f/g/a/ f/d/e/f/ g/e/f/g/ e/c/d/e/ | %26
 f/d/e/f/ d/B/c/d/ c/A/B/c/ A/F/G/A/ | B/^A/B/c/ d/c/d/e/ f/g/a/g/ f/e/d/c/ | %28
 d/e/f/g/ a2 z [Ff][Gg][Aa] | !>![Acea]A/c/ e/!>!a/e/c/ aA/c/ e/a/e/c/ | %30
 !>!aA/c/ e/a/f/e/ d/c/d/e/ f/e/f/a/ | b/a/f/e/- e2 b/a/f/e/- e2 | b/a/f/d/- d4 de | %33
[K:F] f/A/B/d/ g/A/B/d/ f/A/B/d/ e/A/B/d/ |[K:F] e/G/A/c/ f/G/A/c/ e/G/A/c/ d/G/A/c/ | %35
 d/F/G/B/ e/F/G/B/ d/F/G/B/ c/F/G/B/ | A/C/D/E/ G/C/D/E/ A/F/G/A/ B/c/d/e/ | %37
 f/c/_d/f/ _a/c/d/f/ g/c/d/_e/ f/c/d/=e/ | f/_A/B/c/ _e/A/B/c/ e/G/A/B/ _d/G/A/B/ | %39
 !arpeggio![CF_Ac]3 A/F/ [DB]4 | [_A,CF_A]3 F/D/ [^CG]2- [CG]>a | a'4 z2 d'/^c'/d'/e'/ | %42
[K:D] b6 b/^a/b/d'/ | g4 z efg | [Aea]3 [Bb] [cc'][Beb][Aca][Ace] | [Ace][df]- [df]2 z2 f/e/d/c/ | %46
 d3 B/c/ d2- d/B/B/c/ | d2 f4 ed/B/ | [Bdfb]3 [Bdfb] [Bdfb][Bdfa][Bdf][GBde]- | %49
 [GBde]2 B,/C/B,/A,/ B/c/B/A/ a/f/g/a/ | [Ae][Fd]/[Fd]/- [Fd]4 a/f/g/a/ | %51
 [Ae][Ad]/[Ad]/- [Ad]/[Ae][Af]/ [Af]2 d'/c'/d'/e'/ | [gb]2 b/^a/b/d'/ [eg]>g =a/g/f/e/ | %53
 e<f- f2 z [Ff][Gg][Aa] | [Acea]2 [cc'][dd'] !arpeggio![ee']2 [cc'][Bb] | %55
 [Aea]2- [Aea]/f/a/f/ d2 b/a/f/e/- | e2 b/a/f/e/- e>b a/f/e/d/- | %57
 d/c/d/e/ f/e/f/g/ a/f/g/a/ b/a/f/e/- | e2 b/a/f/e/- e>b a/f/e/d/- | d z [G_B]2 [EA]2 [Bc]G | %60
 [Fd]2 [Fd]>d !fermata!d'2 z2 |] %61
V:2
 A2 | A6 A2 | A2 A>A- A2 z2 | x8 | a4 z4 | x8 | x8 | x8 | z4 z2 A2 | x8 | x8 | x8 | x8 | x8 | x8 | %15
 x8 | z4 c2 A z | A6 A2 | A2 A>A- A2 z2 | x8 | a4 z4 | x8 | x8 | x8 | x8 | x8 | x8 | x8 | x8 | x8 | %30
 x8 | x8 | x8 |[K:F] f2 g2 f2 e2 |[K:F] e2 f2 e2 d2 | d2 e2 d2 c2 | A2 G2 A2 z2 | f2 _a2 g2 f2 | %38
 f2 _e2 e2 _d2 | x8 | x8 | x8 |[K:D] x8 | x8 | x8 | x8 | x8 | x8 | x8 | z2 E2 e2 A2 | z4 [EA]2 A2 | %51
 x8 | x8 | x8 | x8 | x8 | x8 | x8 | x8 | x8 | x8 |] %61
V:3
 z2 | D,A,FA, C,A,EA, | B,,F,DF, A,,F,DF, | G,,D,B,D, A,,E,CE, | D,A,FA, D,A,EA, | %5
 A,,E,CE, G,,E,CE, | F,,C,A,C, B,,F,DF, | G,,D,B,D, A,,E,CE, | D,A,FA, D,4 | G,,D,B,D, F,,D,A,D, | %10
 E,,B,,G,B,, D,,B,,G,B,, | C,,A,,E,A,, A,,,A,,C,E, | D,,A,,D,F, A,F,DA, | B,,F,DF, A,,F,DF, | %14
 =A,,F,DF, ^G,,F,DF, | =G,,D,G,A, [B,DG]4 | A,,E,G,A, E4 | D,A,FA, C,A,EA, | B,,F,DF, A,,F,DF, | %19
 G,,D,B,D, A,,E,CE, | D,A,FA, D,A,EA, | A,,E,CE, G,,E,CE, | F,,/ z/ C, A,C, B,,F,DF, | %23
 G,,D,B,D, A,,E,CE, | D,A,FA, D,2 z2 | D,A,FA, C,A,EA, | B,,F,DF, A,,F,CF, | G,,D,B,D, A,,E,CE, | %28
 D,A,FA, D,A,EA, | A,,E,CE, G,,E,CE, | F,,C,A,C, B,,F,DF, | G,,D, B,/A,/F,/E,/ A,,E, B,/A,/F,/E,/ | %32
 D,,A,, B,/A,/F,/D,/- D,4 |[K:F] B,,F,DB, B,,F,DB, |[K:F] A,,E,CG, A,,E,CG, | B,,F,DB, B,,F,DB, | %36
 F,,C,A,C, F,,C,A,C, | B,,F,_D_A, B,,F,DG, | _A,,_E,CG, G,,=E,_DE, | %39
 !arpeggio![F,,C,F,]4 [B,,F,]4 | [_E,,B,,_E,]4 [A,,G,]4- | [A,,G,]8 |[K:D] G,B,DB, F,B,DB, | %43
 E,B,DB, D,B,DB, | C,A,EA, A,,E,A,C | D,A,[K:treble]DF A2 z2 | %46
 [B,DF][B,DF][B,DF][B,DF] [^A,DF][A,DF][A,DF][A,DF] | %47
 [A,DF][A,DF][A,DF][A,DF] [^G,DF][G,DF][G,DF][G,DF] |[K:bass] G,,D,G,A, [B,DG]4 | %49
 z E,- [E,G,]2- [E,G,]4 | D,,A,,F,A,, C,,A,,E,A,, | B,,,B,,D,F, A,,F,DF, | G,,D,B,D, A,,E,CE, | %53
 D,,A,,/D,/- D,/E,/F,/A,/ D4 | A,,E,CE, G,,E,CE, | F,,C,A,C, B,,F,DF, | G,,D,B,D, A,,E,CE, | %57
 D,A,FA, D,4 | G,,D,B,D, A,,E,CE,- | E,2 G,D F,D E,2 | !fermata!D,6 z2 |] %61
V:4
 x2 | x8 | x8 | x8 | x8 | x8 | x8 | x8 | x8 | x8 | x8 | x8 | x8 | x8 | x8 | x8 | x8 | x8 | x8 | %19
 x8 | x8 | x8 | x8 | x8 | x8 | x8 | x8 | x8 | x8 | x8 | x8 | x8 | x8 |[K:F] x8 |[K:F] x8 | x8 | %36
 x8 | x8 | x8 | x8 | x8 | x8 |[K:D] x8 | x8 | x8 | x2[K:treble] x6 | x8 | x8 |[K:bass] x8 | A,,8 | %50
 x8 | x8 | x8 | x8 | x8 | x8 | x8 | x8 | x8 | x8 | x8 |] %61

